X:1
T:Reunion Jig
M:6/8
L:1/8
K:A
C:Russ Barenberg
"A"cdc "E"BAG|"A"AED CB,A,|"D"DEF "A/C#"EAc|"Bm"dec "E"BAB|!
"A"cdc "E"BAG|"A"AED CB,A,|"D"DEF "E"EAG|1"A"A3-A2B:|2"A"A3- AcA||!
"E"BEE cEE|edc Bcd|"A"cAA ABc|"E"BEE E2c|BEE cEE|!
"E"edc Bcd|1"A"cAA eAc|"E"B3-B2c:|2"A"cAA "(F#m)"ABc|"D(Bm)"dFc "E"Bcd|]!
